X: 24530
T: Lucy's
R: waltz
M: 3/4
K: Gmajor
D GA|B2 BA BD|B2 BA GA|B2 BG DC|B,3D GB|
cB AG FG|Ad c2 cB|c2 cB cd|ec dB cA|
B2 BA BD|B2 BA GA|B2 BG DC|B,3D GB|
cB AB cd|ec dB c^c|d2 d^c de|d3d ef||
gf ga bg|af d2 ef|g2 gf g^g|af d2 dc|
B2 BA Bc|dg dc BA|G2 GF GF|G3d ef|
g2 gf ga|bg af d2|g2 gf g^g|af d2 dc|
B2 BA Bc|dg dc BA|G2 GF GB|G4 z2|

